X: 717
P: Longways for as many as will
M: 6/4
L: 1/4
K: Bb
(DF)B (Bc)d | B3 F2A | Bcd def | d3 B2c |\
def fed | g3 G2A | Bcd dcB | f3 F2G |
c |\
c>dc c2d | e3- e2f | g>_ag f2e | d3- d2e |
f>gf e2d | c3 def | gfe dcB | A3 F2f |\
gab a2b | b3- b2c | d>ef c2B | B3- B2 :|

